X:1
T:Title
%%score { 1 | ( 2 3 ) }
L:1/8
Q:1/4=100
M:4/4
K:F
V:1 treble nm="Grand Piano"
V:2 bass 
V:3 bass 
V:1
 A2 A2 A3 A | G2 F2 B2 A2 | [CEc]2 [CEG]2 [B,EG]3 [A,EA] | [EB]2 E2 F4 | D2 E2 F3 G | A2 A2 A4 | %6
w: P.~P.~Bliss * * *||||||
 D2 E2 F3 A | GFED C4 | A2 A2 A3 A | G2 F2 B2 A2 | [CEc]2 [CEG]2 [B,EG]3 [A,EA] | [EB]2 E2 F4 |] %12
w: ||||||
V:2
 [F,CF]2 [F,CF]2 [F,CF]3 [F,CF] | z4 D2 z2 | C,2 C,2 C,3 C, | [C,G,]2 [C,B,C]2 [F,A,C]4 | %4
 D,2 E,2 F,3 G, | A,2 A,2 A,4 | [D,F,]2 [D,G,D]2 [D,A,D]3 [F,A,D] | z2 [G,=B,]2 z4 | %8
 [F,CF]2 [F,CF]2 [F,CF]3 [F,CF] | z4 [F,F]4 | C,2 C,2 C,3 C, | [C,G,]2 [C,B,C]2 [F,A,C]4 |] %12
V:3
 x8 | [F,B,F]2 [F,A,]2 [F,F]2- [F,CF]2 | x8 | x8 | x8 | x8 | x8 | [G,=B,D]2 z F, [C,E,]4 | x8 | %9
 [F,B,F]2 [F,A,]2 D2 C2 | x8 | x8 |] %12

